X:1
T:Title
%%score { ( 1 3 4 ) | ( 2 5 ) }
L:1/8
M:4/4
K:Eb
V:1 treble nm="Grand Piano"
V:3 treble 
V:4 treble 
V:2 bass 
V:5 bass 
V:1
 z4 z2[Q:1/4=100] EF | G2 GG F2 G2 | E4 z4 | E2 FG [CFB]2 [A,CFA]2 | F6 z2 | %5
 [FA]2 .[B,DA]2 [DG]2 [DF]2 | [EB]4 z4 | [B,D]G[DF]E[K:bass] [F,B,D]2 [=A,C]2 | %8
 B,6[K:treble] [B,B][B,B] | [Ac]2 [B,DGB]2 [FA]2 [DEG]F | [GB]4 z4 | %11
 [CFA]2 [G,B,C=EG]2 [A,CF]2[K:bass] [F,C_E]2 | [F,E]2- [F,-=B,E]2 [F,D]2 _B,B, | E2 [DF]2 GBc[Ad] | %14
 [Ee]2- [EAe]2 [EBe]2 [Ad]c | [B,GB]2 [FA]2 [EG]2 [A,DF]2 | [G,B,E]6 z2 | B6 z2 | B6 z2 | %19
 .[EGB]2 .[EGd]2 fe [Gd]2 | [Ac]2 D2 z =B .[Dc]2 | [DAc]2 c2- [DAc]2 .[DAc]2 | %22
 [DAc]2 c2- [DAc]2 .[DAc]2 | [FAd]2 [FA_d]2 [FAc]2 [FA=B]2 | B2- [FAB-]2 [FAB]4 | B6 z2 | B6 z2 | %27
 .[EGB]2 .[EGd]2 fedc | z2 _G2 z4 | z2 e4 z2 | z2 e4 z2 | [GB]2 [FA]2 [EG]2 [DF]2 |[M:3/4] E6 |] %33
V:2
 z8 | E,2 [G,B,E]2 B,,2 [A,B,D]2 | E,2 G,2 E,2 [G,B,]2 | C,2 [E,G,C]2 F,,2 F,2 | %4
 z2 A,2 A,2[K:treble] FG | z2 A,2 z4 | [G,,G,]2 B,,2 [G,,G,]2 z B, | z E z C F,,2 G,,=A,, | %8
 B,,C,D,F, A,F,D,C, | z4 z2 A,2 | z4 z2 [=E,G,B,]2 | F,,2 G,,2 A,,2 =A,,2 | %12
 z2 A,2 [A,B,]2 [B,,A,]2 | [C,G,C]2 [B,,B,]2 [E,B,E][G,E][A,E][F,B,] | %14
 [E,B,]2 [F,,F,]2 [G,,G,]2 z A | B,,2 B,2 B,,2 B,,2 | E,C,B,,G,, E,,[K:treble]FGA | %17
 E,2 =E,2 z[K:treble] cB,,c | E,2 =E,2 z[K:treble] cB,,c | z c[K:bass] z e [E,B,]2 [B,,B,]2 | %20
 [F,B,]2 [B,,B,]2 [F,B,]2 z[K:treble] d | F,2 B,,2 z[K:treble] =B z d | %22
 F,2 B,,2 z[K:treble] =B z e | B,,2 =B,,2 C,2 _D,2 | D,2 B,,2 C,2 D,2 | %25
 E,2 =E,2 z[K:treble] cB,,c | E,2 =E,2 z[K:treble] cB,,c | z c[K:bass] z e [E,B,]2 [B,,B,]2 | %28
 [=B,,=A,]2 [B,,A,]2 .[B,,A,]2 z2 | [=A,,C_G]2 [A,,CG]2 z E z E | %30
 [B,,B,]2 [B,,B,]2 [B,,B,]2 [B,,B,]2 | [B,,B,]2 [B,,B,]2 [B,,B,]2 [B,,A,]2 |[M:3/4] [E,G,]6 |] %33
V:3
 x8 | x8 | z2 z C B,2 CD | x8 | D2 [=B,E]2 [_B,D]2 z2 | x8 | z2 z G [B,E]2 EE | x4[K:bass] x4 | %8
 x6[K:treble] x2 | x8 | z2 z G E2 GG | x6[K:bass] x2 | B,2 z2 z4 | x8 | G2 z2 z4 | x8 | x8 | %17
 [EG]2 [_DG]2 z2 .B2 | [EG]2 [_DG]2 z2 .B2 | z4 G2 z2 | z4 D2 z2 | z2 [DA]2 z4 | z2 [DA]2 z4 | x8 | %24
 [FA]2 z2 z4 | [EG]2 [_DG]2 z2 .B2 | [EG]2 [_DG]2 z2 .B2 | z4 G2 G2 | [_Ge]2 E2- [EG]EDE | %29
 e2 z2 [C_G]2 .[CDG]2 | [Ge]2 G2 z e[Fd][Ac] | x8 |[M:3/4] x6 |] %33
V:4
 x8 | x8 | z2 B,2 z4 | x8 | x8 | x8 | z2 B,2 z4 | x4[K:bass] x4 | x6[K:treble] x2 | x8 | z2 E2 z4 | %11
 x6[K:bass] x2 | x8 | x8 | x8 | x8 | x8 | z4 [=DA]4 | z4 [=DA]4 | x8 | x8 | x8 | x8 | x8 | x8 | %25
 z4 [=DA]4 | z4 [=DA]4 | x8 | x8 | x8 | z4 G2 z2 | x8 |[M:3/4] x6 |] %33
V:5
 x8 | x8 | x8 | x8 | B,,6[K:treble] z2 | B,,2 z A B,,2 [A,,A,]2 | z4 z2 [_G,,_G,]2 | %7
 [F,,F,]2 F,2 z4 | x8 | B,,2 A,2 B,,2 z D | [E,,E,]2 [G,B,]2 C,2 CC | x8 | B,,6 z2 | x8 | %14
 z4 z2 [A,,A,]2 | x8 | x5[K:treble] x3 | z4 F,2[K:treble] z2 | z4 F,2[K:treble] z2 | %19
 E,2[K:bass] B,,2 z4 | z4 z2 [B,,B,]2[K:treble] | z4 F,2[K:treble] B,,2 | z4 F,2[K:treble] B,,2 | %23
 x8 | x8 | z4 F,2[K:treble] z2 | z4 F,2[K:treble] z2 | E,2[K:bass] B,,2 z4 | x8 | z4 =A,,2 A,,2 | %30
 x8 | x8 |[M:3/4] x6 |] %33

